X: 12
T: Bonnie Charlie
S: Niel Gow
R: hornpipe, reel
O: RSCDS 16-10(II)
B: RSCDS 16-10(II)
B: Gow's 3rd
Z: John Chambers <jc:trillian.mit.edu>
M: C|
L: 1/8
K: Dm
A,2 \
| "Dm"D2DE F2FG | ABGA F2 (3GAB | A2D2 D3F \
| "C"EFGE C2FE | "Dm"D2DE F2FG | ABGA F2 (3GAB |
| A2D2 "Am"FEDC | "Dm"D4 d2 :| A2 | "Dm"dedc A2A2 \
| dedc A3f | "C"efge c2c2 | efge c2fg |
| "F"a2fa "C7"g2eg | "Dm"f2df "A7"fed^c | "Dm"d3e fedc \
| "Am"A2d2 "Dm"d3 |]| A | "Dm"dedc A2A2 | "F"[f2A2][f2A2] "(Am)"A3c |
| "Gm"BAGF GFED | "C"EFGE C2FG | "F"A2FA "C"c2Ac \
| "Dm"defg fed^c | "Gm"dcBA "A7"AGFE | "Dm"D4 d2 |]

%%sep 1 1 500

